X:1
T:You Can't Stop The Beat
C:Marc Shaiman
L:1/4
K:C
M:4/4
V:3 name="Bb Trumpet 3" snm="Tpt 3"
!f!c/_B/ z/ G/ z/ F/ z/ _E/ | z/ C/ z/ _B,/ z/ C/ z/ F/ | ^D/E/ z/ G/ z/ A/ z/ _B/ | z/ A/ z/ _B/ z/ !>!^D3/2 | [P:5] E z z2 | 
z2 z !mf! A | G z z2 | z/ G/ .F (E/4^D/4E/4D/4 .E/) z/ | [P:9] Z7 | z2 z/ !mf! (A/ c/d/) | [P:17] "_cresc."d c/.c/ z/ .A c/ | 
z/ .c d/ z/ (c/ d/)!>!e/- | e d/.d/ z/ .c !>!d/- | d2 z/ !f! (A/ B/)!>!c/- | [P:21]c/
